build/system/SmallArrowUpSolid.svg

<svg xmlns="http://www.w3.org/2000/svg" fill="none" viewBox="0 0 24 24" focusable="false"><path d="M0 0H24V24H0z"/><path fill="#74767B" fill-rule="evenodd" d="M12 3C7.02944 3 3 7.02944 3 12C3 16.9706 7.02944 21 12 21C16.9706 21 21 16.9706 21 12C21 7.02944 16.9706 3 12 3ZM15.1778 13.6433C15.3178 13.5133 15.3878 13.3433 15.3878 13.1633C15.3878 13.0033 15.3378 12.8533 15.2178 12.7233L12.53 9.73354C12.25 9.42354 11.77 9.42354 11.49 9.73354L8.89368 12.7191C8.65368 12.9891 8.67368 13.3991 8.93368 13.6391C9.20368 13.8791 9.61368 13.8691 9.85368 13.5991L12.01 11.1035L14.2578 13.6033C14.4978 13.8633 14.9078 13.8833 15.1778 13.6433Z"/></svg>

<svg xmlns="http://www.w3.org/2000/svg" fill="none" viewBox="0 0 24 24" focusable="false"><path fill="#74767B" fill-rule="evenodd" d="M12 3c-4.98 0-9 4.02-9 9 0 4.97 4.02 9 9 9a9 9 0 0 0 9-9c0-4.98-4.03-9-9-9m3.17 10.64c.14-.13.21-.3.21-.48 0-.16-.05-.31-.17-.44l-2.69-2.99a.7.7 0 0 0-1.04 0l-2.59 2.98c-.24.27-.22.68.04.92.27.24.68.23.92-.04L12 11.1l2.25 2.5c.24.26.65.28.92.04"/></svg>
